svgs/regular/motorcycle.svg

<svg xmlns="http://www.w3.org/2000/svg" viewBox="0 0 640 512"><!--! Font Awesome Pro 6.5.1 by @fontawesome - https://fontawesome.com License - https://fontawesome.com/license (Commercial License) Copyright 2023 Fonticons, Inc. --><path d="M292.5 224.7c11.1 14.3 20.4 30.2 27.5 47.2c15.3-36.5 40.6-67.8 72.6-90.2l-15.3-28.2-84.9 71.3zM304 384H288V352c0-88.4-71.6-160-160-160H56c-13.3 0-24-10.7-24-24s10.7-24 24-24h72c49.6 0 95.1 17.3 130.8 46.3l95.2-80L337.7 80H280c-13.3 0-24-10.7-24-24s10.7-24 24-24h62.5c14.7 0 28.2 8.1 35.2 21l13.9 25.8 46.7-39.3c5.8-4.8 13.1-7.5 20.6-7.5H480c17.7 0 32 14.3 32 32V96c0 17.7-14.3 32-32 32H418.2l55.1 102c12.2-3.9 25.2-6 38.7-6c70.7 0 128 57.3 128 128s-57.3 128-128 128s-128-57.3-128-128c0-40 18.4-75.7 47.1-99.2l-15.4-28.6C377 253.4 352 299.8 352 352v32H304v0zm128-32c0 44.2 35.8 80 80 80s80-35.8 80-80s-35.8-80-80-80c-5.2 0-10.3 .5-15.2 1.4l36.3 67.1c6.3 11.7 2 26.2-9.7 32.5s-26.2 2-32.5-9.7l-36.3-67.1c-14 14.4-22.6 34.1-22.6 55.7zM204.3 328c-10.2-32.5-40.5-56-76.3-56c-44.2 0-80 35.8-80 80s35.8 80 80 80c35.8 0 66.1-23.5 76.3-56H149.2c-5.6 5-13.1 8-21.2 8c-17.7 0-32-14.3-32-32s14.3-32 32-32c8.1 0 15.5 3 21.2 8h55.2zM128 224a128 128 0 1 1 0 256 128 128 0 1 1 0-256z"/></svg>

<svg xmlns="http://www.w3.org/2000/svg" viewBox="0 0 640 512"><!--! Font Awesome Pro 6.1.1 by @fontawesome - https://fontawesome.com License - https://fontawesome.com/license (Commercial License) Copyright 2022 Fonticons, Inc. --><path d="M288 384V352C288 263.6 216.4 192 128 192H56C42.75 192 32 181.3 32 168C32 154.7 42.75 144 56 144H128C177.6 144 223.1 161.3 258.8 190.3L354.1 110.3L337.7 80H280C266.7 80 256 69.26 256 56C256 42.75 266.7 32 280 32H342.5C357.2 32 370.7 40.05 377.6 52.98L391.6 78.76L438.3 39.5C444.1 34.66 451.4 32 458.9 32H480C497.7 32 512 46.33 512 64V96C512 113.7 497.7 128 480 128H418.2L473.3 229.1C485.5 226.1 498.5 224 512 224C582.7 224 640 281.3 640 352C640 422.7 582.7 480 512 480C441.3 480 384 422.7 384 352C384 311.1 402.4 276.3 431.1 252.8L415.7 224.2C376.1 253.4 352 299.8 352 352V384H288zM320 271.9C335.3 235.3 360.6 204.1 392.6 181.6L377.4 153.4L292.5 224.7C303.6 239 312.9 254.9 320 271.9V271.9zM512 432C556.2 432 592 396.2 592 352C592 307.8 556.2 272 512 272C506.8 272 501.7 272.5 496.8 273.4L533.1 340.6C539.4 352.2 535.1 366.8 523.4 373.1C511.8 379.4 497.2 375.1 490.9 363.4L454.6 296.3C440.6 310.7 432 330.3 432 352C432 396.2 467.8 432 512 432V432zM0 352C0 281.3 57.31 224 128 224C198.7 224 256 281.3 256 352C256 422.7 198.7 480 128 480C57.31 480 0 422.7 0 352zM204.3 328C194.1 295.5 163.8 272 128 272C83.82 272 48 307.8 48 352C48 396.2 83.82 432 128 432C163.8 432 194.1 408.5 204.3 376H149.2C143.5 380.1 136.1 384 128 384C110.3 384 96 369.7 96 352C96 334.3 110.3 320 128 320C136.1 320 143.5 323 149.2 328H204.3z"/></svg>
